X: 57
T: Stomp Dance Song (k)
C: Anon.
%%abc-version 2.0
%%abcx-abcm2ps-target-version 5.9.1 (29 Sep 2008)
%%abc-creator hum2abc beta
%%abcx-conversion-date 2020/08/10 20:56:09
%%abc-copyright Electronic Copyright 2000 David Huron
%%abc-edited-by David Huron
%%abcx-initial-encoding-date August 29, 2000
%%humdrum-veritas 3375505581
%%humdrum-veritas-data 3615986899
%%linebreak <none>
%%barnumbers 0
L: 1/16
M: 2/4
Q: 1/4=63
K: B clef=bass
B,2 G, G, G, G, G,2 | 
B,2> B,2 G, G, B,2 | 
B,2> G,2 G, G, G,2 | 
D2> B,2 C B, B,2 | 
B,2> G,2 G, G, G,2[M:3/4] | 
D2> C2 B,2 C B,2 B,2[M:2/4] | 
B,2> G,2 G, G, G,2 | 
B,2> B,2 G, G, B,2 | 
B,2> G,2 G, G, G,2[M:3/4] | 
D2> C2 B,2< G,2B,4[M:2/4] | 
B,2> G,2 G, G, G,2 ]|:  
D2> B,2 C C C2 [I:setbarnb 13]| 
B,2> G,2 G, G, G,2 | 
B,2> B,2 G, G, B,2 | 
B,2> G,2 G, G, G,2 | 
B,2> B,2 G, G, B,2 [I:setbarnb 17]| 
B,2> G,2 G, G, G,2 | 
C B,2 G, G, G, B,2 | 
B,2> G,2 G, G, G,2 :|]  


